X: 35717
T: Saint Patrick's Day
R: jig
M: 6/8
K: Gmajor
D|:"G" GAG GBc|ded dBG|"D" AGA "G" BGD|"C" EFE E2D|
"G" GAG GBc|ded dBG|"D" AGA "G" BGD|1 "C" E2F "G" G2D:|2 "C" E2F "G" G2d||
|:"Em" def g2e|"D" fed "C" eBA|"Em" Bef g2e|"D" fed "C" e2d|
"Em" def g2e|"D" fed "C" efg|"G" GAG GBc|ded dBG|
"D" AGA "G" BGD|"C" EFE E2D|"G" GAG GBc|ded dBG|
"D" AGA "G" BGD|1 "C" E2F "G" G2B:|2 "C" E2F "G" G2D||

